src/assets/voice_message_icons/speaker-muted.svg

<svg fill="none" height="19" viewBox="0 0 27 19" width="27" xmlns="http://www.w3.org/2000/svg"><path clip-rule="evenodd" d="m20.877 6.70305c-.3905-.39052-1.0237-.39052-1.4142 0s-.3905 1.02369 0 1.41421l2.0271 2.02704-2.027 2.027c-.3905.3905-.3905 1.0236 0 1.4142.3906.3905 1.0237.3905 1.4142 0l2.027-2.027 2.0269 2.027c.3905.3905 1.0237.3905 1.4142 0 .3906-.3906.3906-1.0237 0-1.4142l-2.0269-2.027 2.0271-2.02704c.3905-.39052.3905-1.02369 0-1.41421-.3906-.39052-1.0237-.39052-1.4143 0l-2.027 2.02706z" fill="#fff" fill-rule="evenodd"/><path clip-rule="evenodd" d="m15.5348.144187c.2996.181103.4827.505711.4827.855813v16.5592c0 .3501-.1831.6748-.4827.8559-.2997.1811-.6722.1923-.9822.0295l-9.34556-4.9064c-.32906-.1728-.53516-.5137-.53516-.8854v-6.74636c0-.37165.2061-.71264.53516-.88539l9.34556-4.906447c.31-.16274.6825-.1515187.9822.029584zm-8.86292 6.366693v5.53752l7.34562 3.8564v-13.25036z" fill="#fff" fill-rule="evenodd"/><rect height="7.00921" rx="1" stroke="#fff" stroke-width="2" width="4.6728" x="1" y="5.62842"/></svg>

<svg width="27" height="19" viewBox="0 0 27 19" fill="none" xmlns="http://www.w3.org/2000/svg">
<path fill-rule="evenodd" clip-rule="evenodd" d="M20.877 6.70305C20.4865 6.31253 19.8533 6.31253 19.4628 6.70305C19.0723 7.09357 19.0723 7.72674 19.4628 8.11726L21.4899 10.1443L19.4629 12.1713C19.0724 12.5618 19.0724 13.1949 19.4629 13.5855C19.8535 13.976 20.4866 13.976 20.8771 13.5855L22.9041 11.5585L24.931 13.5855C25.3215 13.976 25.9547 13.976 26.3452 13.5855C26.7358 13.1949 26.7358 12.5618 26.3452 12.1713L24.3183 10.1443L26.3454 8.11726C26.7359 7.72674 26.7359 7.09357 26.3454 6.70305C25.9548 6.31253 25.3217 6.31253 24.9311 6.70305L22.9041 8.73011L20.877 6.70305Z" fill="white"/>
<path fill-rule="evenodd" clip-rule="evenodd" d="M15.5348 0.144187C15.8344 0.32529 16.0175 0.649898 16.0175 1V17.5592C16.0175 17.9093 15.8344 18.234 15.5348 18.4151C15.2351 18.5962 14.8626 18.6074 14.5526 18.4446L5.20704 13.5382C4.87798 13.3654 4.67188 13.0245 4.67188 12.6528V5.90644C4.67188 5.53479 4.87798 5.1938 5.20704 5.02105L14.5526 0.114603C14.8626 -0.048137 15.2351 -0.0369157 15.5348 0.144187ZM6.67188 6.51088V12.0484L14.0175 15.9048V2.65444L6.67188 6.51088Z" fill="white"/>
<rect x="1" y="5.62842" width="4.6728" height="7.00921" rx="1" stroke="white" stroke-width="2"/>
</svg>
